X:1
T:Fed upon the Finest of Wheat
T:Frederick Arthur Graves, 1892
T:Fed upon the Finest of Wheat
T:Public Domain
T:Public Domain
C:Frederick Arthur Graves, 1892
Z:Public Domain
%%score ( 1 2 ) ( 3 4 )
L:1/8
M:4/4
K:Ab
V:1 treble 
V:2 treble 
V:3 bass 
V:4 bass 
V:1
 [CE]2 ([CE][CE]) [DF]2 ([CE][CE]) | [DF]2 [Fd]2 [DF]4 | [EG][EG][EG][EG] [DF]2 [DE]2 | [CA]6 z2 | %4
w: 1.~Hun- gry, * Lord, for~Thy *|Word of truth,|Sit- ting at my Sav- ior’s|feet;|
w: 2.~Work for~the * Mas- ter *|I will do,|Trust- ing in His strength so|great;|
w: 3.~Then to~the * har- vest *|let us go,|Bu- gles sound- ing no re-|treat;|
 [CE]2 ([CE][CE]) [DF]2 [CE]2 | [DF]2 [Fd]2 [DF]4 | [EG][EG][EG][EG] [DE][DE][DF][DG] | [CA]6 z2 || %8
w: Ris- ing, * glean- ing,|just like Ruth,|Feed me on the fin- est of the|wheat.|
w: Liv- ing * in His|pas- tures new,|Feed me on the fin- est of the|wheat.|
w: Work- ers~for * Je- sus,|He wants you|Fed up- on the fine- st of the|wheat.|
"^Refrain" [Ac]2 [Ae]2 [Ae]2 [Ac][EB] | [FA]2 [DF]2 [CE]4 | [EA]3 [EA] [Ac]2 A2 | [GB]6 z2 | %12
w: ||||
w: Bread of life it is|now to me,|Hon- ey, milk and|In|
w: ||||
 [Ac]2 [Ae]2 [Ae]2 [Ac][EB] | [EA]2 [Ec]2 [Fd]4 | [EG][EG][EG][EG] [DE][DE][DF][DG] | [CA]6 z2 |] %16
w: ||||
w: Thy love I will ev-|er be Fed|up- on the fine- st of the wheat.||
w: ||||
V:2
 x8 | x8 | x8 | x8 | x8 | x8 | x8 | x8 || x8 | x8 | x6 A2 | x8 | x8 | x8 | x8 | x8 |] %16
w: ||||||||||||||||
w: ||||||||||meat;||||||
V:3
 [A,,A,]2 ([A,,A,][A,,A,]) [A,,A,]2 ([A,,A,][A,,A,]) | [D,A,]2 [D,A,]2 [D,A,]4 | %2
 [E,D][E,D][E,D][E,D] [E,G,]2 [E,G,]2 | [A,,A,]6 z2 | [A,,A,]2 ([A,,A,][A,,A,]) [A,,A,]2 [A,,A,]2 | %5
 [D,A,]2 [D,A,]2 [D,A,]4 | [E,D][E,D][E,D][E,D] [E,G,][E,G,][E,A,][E,B,] | [A,,A,]6 z2 || %8
 [A,E]2 [A,C]2 [A,C]2 [A,E][A,C] | [D,D]2 [D,A,]2 [A,,A,]4 | [A,C]3 [A,C] [A,E]2 [A,C]2 | %11
 [E,E]6 z2 | [A,E]2 [A,C]2 [A,C]2 [A,E][A,D] | [A,C]2 A,2 [D,A,]4 | %14
 [E,D][E,D][E,D][E,D] [E,G,][E,G,][E,A,][E,B,] | [A,,A,]6 z2 |] %16
V:4
 x8 | x8 | x8 | x8 | x8 | x8 | x8 | x8 || x8 | x8 | x8 | x8 | x8 | x2 A,2 x4 | x8 | x8 |] %16

